src/img/step2_icon.svg

<svg width="137" height="128" viewBox="0 0 137 128" fill="none" xmlns="http://www.w3.org/2000/svg">
<g opacity="0.2">
<path d="M105.855 44.9412V105.235C105.855 109.231 102.616 112.471 98.6202 112.471H31.0908C27.0948 112.471 23.8555 109.231 23.8555 105.235V23.2353C23.8555 19.2394 27.0948 16 31.0908 16H76.9143M105.855 44.9412H84.1496C80.1536 44.9412 76.9143 41.7018 76.9143 37.7059V16M105.855 44.9412V44.9412C105.855 43.4044 105.21 41.9382 104.078 40.8997L76.9143 16" stroke="#69DBEF" stroke-width="4" stroke-linejoin="round"/>
<path d="M43.1484 49.7647H58.8249" stroke="#69DBEF" stroke-width="4" stroke-linecap="round" stroke-linejoin="round"/>
<path d="M43.1484 69.0588H84.1484" stroke="#69DBEF" stroke-width="4" stroke-linecap="round" stroke-linejoin="round"/>
<path d="M43.1484 88.3529H84.1484" stroke="#69DBEF" stroke-width="4" stroke-linecap="round" stroke-linejoin="round"/>
</g>
</svg>

<svg width="137" height="128" fill="none" xmlns="http://www.w3.org/2000/svg"><g opacity=".2" stroke="#69DBEF" stroke-width="4" stroke-linejoin="round"><path d="M105.855 44.941v60.294a7.236 7.236 0 01-7.235 7.236H31.09a7.236 7.236 0 01-7.235-7.236v-82A7.235 7.235 0 0131.091 16h45.823m28.941 28.941H84.15a7.235 7.235 0 01-7.236-7.235V16m28.941 28.941v0a5.485 5.485 0 00-1.777-4.041L76.914 16"/><path d="M43.148 49.765h15.677M43.148 69.059h41m-41 19.294h41" stroke-linecap="round"/></g></svg>
